X:46
T:Dirigible Cat, The
M:C|
L:1/8
C:© Paul Gitlitz 2007
R:Reel
N: Margie Katz suggested this title for her Blimpy Kitty.
K:A
"F#m"c2fc cgcc|accg ccfe|"D"d2fd dgdd|fddg- gfed|!
"F#m"c2fc cgcc|accg ccfc|"D"d2dd defd|"E"e2ee efge:|!
|:"A"a2aa afec|"C#m"A2AA ABcA|"D"d3d- dcBA|"E"GABc defg|!
"A"aa2a- afec|"C#m"AA2A- ABcA|"D"d3c- c2B2-|"E"BA3 GAB2:|]
